src/assets/media/home/dots_students.svg

<svg width="146" height="12" viewBox="0 0 146 12" fill="none" xmlns="http://www.w3.org/2000/svg">
<path d="M3.02246 6.8191C1.6609 7.04832 0.74297 8.3379 0.972193 9.69945C1.20142 11.061 2.49099 11.9789 3.85254 11.7497L3.02246 6.8191ZM142.24 7.95631C143.608 8.13938 144.866 7.17838 145.049 5.80986C145.232 4.44133 144.271 3.18352 142.903 3.00045L142.24 7.95631ZM3.85254 11.7497C5.01834 11.5534 6.4909 11.3018 8.28381 11.01L7.48054 6.07491C5.66996 6.36962 4.17568 6.62495 3.02246 6.8191L3.85254 11.7497ZM17.141 9.6741C19.792 9.30643 22.7586 8.92341 26.0354 8.54402L25.4604 3.5772C22.144 3.96117 19.14 4.349 16.4541 4.72151L17.141 9.6741ZM34.9479 7.60666C37.761 7.33979 40.7421 7.08366 43.889 6.84601L43.5125 1.86021C40.333 2.10032 37.32 2.35918 34.4757 2.62901L34.9479 7.60666ZM52.8548 6.25101C55.7273 6.08613 58.7136 5.93899 61.8123 5.81406L61.6109 0.818119C58.4835 0.944201 55.4688 1.09274 52.5682 1.25923L52.8548 6.25101ZM70.7934 5.52571C73.7035 5.45579 76.6996 5.40633 79.7809 5.38037L79.7387 0.380551C76.6313 0.406725 73.6092 0.456615 70.6733 0.527149L70.7934 5.52571ZM88.7647 5.3725C90.2448 5.38224 91.7424 5.39749 93.2575 5.41853L93.3269 0.41901C91.7996 0.3978 90.2898 0.382432 88.7976 0.372613L88.7647 5.3725ZM93.2575 5.41853C95.4428 5.44887 97.5116 5.47895 99.4707 5.50882L99.547 0.509406C97.5853 0.479491 95.5142 0.449385 93.3269 0.41901L93.2575 5.41853ZM111.794 5.72196C116.944 5.82479 120.95 5.92745 124.109 6.03323L124.276 1.03603C121.086 0.929222 117.056 0.826034 111.893 0.722956L111.794 5.72196ZM136.072 6.8618C137.514 7.1095 139.009 7.52407 142.24 7.95631L142.903 3.00045C139.67 2.568 138.953 2.28346 136.918 1.93397L136.072 6.8618Z" fill="#0DA650"/>
</svg>

<svg xmlns="http://www.w3.org/2000/svg" fill="none" width="146" height="12" viewBox="0 0 146 12"><path d="M3.022 6.82a2.5 2.5 0 1 0 .83 4.93l-.83-4.93ZM142.24 7.955A2.5 2.5 0 0 0 142.903 3l-.663 4.956ZM3.853 11.75c1.165-.197 2.638-.448 4.43-.74l-.802-4.935c-1.811.295-3.305.55-4.459.744l.83 4.93ZM17.14 9.674a397.38 397.38 0 0 1 8.894-1.13l-.575-4.967c-3.316.384-6.32.772-9.006 1.145l.687 4.952Zm17.807-2.067c2.813-.267 5.794-.523 8.941-.761l-.377-4.986c-3.179.24-6.192.5-9.036.769l.472 4.978ZM52.855 6.25c2.872-.165 5.859-.312 8.957-.437L61.611.818c-3.127.126-6.142.275-9.043.441l.287 4.992Zm17.938-.725c2.91-.07 5.907-.12 8.988-.146l-.042-5c-3.108.027-6.13.077-9.066.147l.12 4.999Zm17.972-.154c1.48.01 2.977.025 4.492.047l.07-5a619.96 619.96 0 0 0-4.53-.046l-.032 5Zm4.492.047c2.186.03 4.255.06 6.214.09l.076-5c-1.962-.03-4.033-.06-6.22-.09l-.07 5Zm18.537.303c5.15.103 9.156.205 12.315.311l.167-4.997c-3.19-.107-7.22-.21-12.383-.313l-.099 4.999Zm24.278 1.14c1.442.247 2.937.662 6.168 1.094L142.903 3c-3.233-.432-3.95-.717-5.985-1.066l-.846 4.928Z" fill="#0DA650"/></svg>
